X: 14398
T: Galway Bay
R: hornpipe
M: 4/4
K: Bdorian
Bc|:d2 DE FEFA|B2 FB BcdB|AFdB AFEF|dcBA BAFA|
B2 Bc dcdB|AGAB cBAF|Bcde fe(3cde|d2 B2 B4:|
|:BAFA Bcdc|BAFG FDBc|~d3 e ~f3 g|aefd cBAc|
dAfd cAec|dAfd cAge|FABc dcBA|F2 B2 B4:|

